X: 1
T: Aada De Chanuces
M: 4/4
L: 1/8
R: reel
K: Bmin
FBBA (3BcB AB|cded cBAB|c2 cB A2 AG|FEFG EFFF:|
fagf efdf|fdef ag e2|1fagf efde|efdc dc B2:|2fagf dBcd|efdc dcBc||
&quot;Last time&quot; fagf dBcd|efdc dBBA|B8||
